assets/img/icons/duotone-icons/Cooking/Knife#2.svg

<?xml version="1.0" encoding="UTF-8"?>
<svg width="24px" height="24px" viewBox="0 0 24 24" version="1.1" xmlns="http://www.w3.org/2000/svg" xmlns:xlink="http://www.w3.org/1999/xlink">
    <!-- Generator: Sketch 52.2 (67145) - http://www.bohemiancoding.com/sketch -->
    <title>Stockholm-icons / Cooking / Knife#2</title>
    <desc>Created with Sketch.</desc>
    <g id="Stockholm-icons-/-Cooking-/-Knife#2" stroke="none" stroke-width="1" fill="none" fill-rule="evenodd">
        <rect id="bound" x="0" y="0" width="24" height="24"></rect>
        <path d="M7.6109127,15.767767 C8.001437,16.1582912 8.001437,16.7914562 7.6109127,17.1819805 L4.0753788,20.7175144 C3.68485451,21.1080387 3.05168953,21.1080387 2.66116524,20.7175144 L1.95405845,20.0104076 C1.56353416,19.6198833 1.56353416,18.9867184 1.95405845,18.5961941 L5.48959236,15.0606602 C5.88011665,14.6701359 6.51328163,14.6701359 6.90380592,15.0606602 L7.6109127,15.767767 Z" id="Rectangle-Copy" fill="#335EEA" opacity="0.3"></path>
        <path d="M18.5104076,2.03984489 C21.2440777,4.77351493 21.2440777,9.20566979 18.5104076,11.9393398 L12.8535534,17.5961941 L7.90380592,12.6464466 L18.5104076,2.03984489 Z" id="Path-65" fill="#335EEA"></path>
    </g>
</svg>

<svg width="24" height="24" viewBox="0 0 24 24" xmlns="http://www.w3.org/2000/svg"><g fill="none" fill-rule="evenodd"><path d="M0 0h24v24H0z"/><path d="M7.61 15.768a1 1 0 010 1.414l-3.535 3.536a1 1 0 01-1.414 0l-.707-.708a1 1 0 010-1.414l3.536-3.535a1 1 0 011.414 0l.707.707z" fill="#335EEA" opacity=".3"/><path d="M18.51 2.04a7 7 0 010 9.9l-5.656 5.656-4.95-4.95L18.51 2.04z" fill="#335EEA"/></g></svg>
